devices/16/video-display.svg

<?xml version="1.0" encoding="UTF-8" standalone="no"?>
<!-- Created with Inkscape (http://www.inkscape.org/) -->
<svg
   xmlns:svg="http://www.w3.org/2000/svg"
   xmlns="http://www.w3.org/2000/svg"
   xmlns:xlink="http://www.w3.org/1999/xlink"
   version="1.0"
   width="16"
   height="16"
   id="svg3217">
  <defs
     id="defs3219">
    <linearGradient
       id="linearGradient2437">
      <stop
         id="stop2439"
         style="stop-color:#b3b3b3;stop-opacity:1"
         offset="0" />
      <stop
         id="stop2441"
         style="stop-color:#d2d2d2;stop-opacity:1"
         offset="1" />
    </linearGradient>
    <linearGradient
       x1="29.009098"
       y1="36.827461"
       x2="29.009098"
       y2="43.065559"
       id="linearGradient2428"
       xlink:href="#linearGradient2437"
       gradientUnits="userSpaceOnUse"
       gradientTransform="matrix(0.3043478,0,0,0.3333333,0.6956517,0.6666657)" />
    <linearGradient
       id="linearGradient9936">
      <stop
         id="stop9938"
         style="stop-color:#333333;stop-opacity:1"
         offset="0" />
      <stop
         id="stop9940"
         style="stop-color:#575757;stop-opacity:1"
         offset="1" />
    </linearGradient>
    <linearGradient
       x1="32.733955"
       y1="16.655838"
       x2="32.733955"
       y2="32.616764"
       id="linearGradient2420"
       xlink:href="#linearGradient9936"
       gradientUnits="userSpaceOnUse"
       gradientTransform="matrix(0.3231408,0,0,0.3412459,0.2123673,0.1525853)" />
    <linearGradient
       id="linearGradient3738">
      <stop
         id="stop3742"
         style="stop-color:#ffffff;stop-opacity:1"
         offset="0" />
      <stop
         id="stop3750"
         style="stop-color:#ffffff;stop-opacity:0"
         offset="0.85612506" />
      <stop
         id="stop3744"
         style="stop-color:#ffffff;stop-opacity:0"
         offset="1" />
    </linearGradient>
    <linearGradient
       x1="17.355219"
       y1="8.000001"
       x2="24.007845"
       y2="26.039217"
       id="linearGradient2417"
       xlink:href="#linearGradient3738"
       gradientUnits="userSpaceOnUse"
       gradientTransform="matrix(0.3892281,0,0,0.4434783,-1.3445264,-2.5478262)" />
  </defs>
  <g
     id="layer1">
    <path
       d="M 4.9512838,12.502276 C 4.9512838,12.502276 4.5107616,14.501367 4.5107616,14.634906 C 4.5107616,14.761045 4.4116376,15.499998 4.8150562,15.499998 C 5.2114153,15.499998 10.954667,15.499998 11.262494,15.499998 C 11.5709,15.499998 11.472261,14.613819 11.498985,14.543433 C 11.524832,14.475355 11.048655,12.499998 11.048655,12.499998 L 4.9512838,12.502276 z"
       id="path2170"
       style="fill:url(#linearGradient2428);fill-opacity:1;fill-rule:evenodd;stroke:#999999;stroke-width:0.99999976;stroke-linecap:round;stroke-linejoin:round;stroke-miterlimit:4;stroke-dasharray:none;stroke-opacity:1" />
    <path
       d="M 0.57186061,0.0001539902 C 5.523954,0.0001539902 10.476048,0.0001539902 15.42814,0.0001539902 C 15.980217,-0.0046072524 16.027388,0.63055716 15.990451,1.0687989 C 15.990451,4.8441419 15.99045,8.6194839 15.99045,12.394828 C 15.994951,12.979064 15.394748,13.028983 14.980629,12.989895 C 10.177705,12.989895 5.3747833,12.989895 0.57186061,12.989895 C 0.019784242,12.994655 -0.027387928,12.359491 0.0095496098,11.92125 C 0.0095496098,8.1459055 0.0095496098,4.3705626 0.0095496098,0.5952197 C 0.0022506796,0.27535638 0.2695014,-0.0075438802 0.57186061,0.0001539902 z"
       id="rect3170"
       style="fill:#1a1a1a;fill-opacity:1;fill-rule:evenodd;stroke:none;stroke-width:1.00396311;stroke-linecap:round;stroke-linejoin:round;marker:none;marker-start:none;marker-mid:none;marker-end:none;stroke-miterlimit:4;stroke-dasharray:none;stroke-dashoffset:0;stroke-opacity:1;visibility:visible;display:inline;overflow:visible;enable-background:accumulate" />
    <path
       d="M 1,1 C 5.6666674,1 10.333334,1 15.000001,1 C 15.000001,4.6666665 15.000001,8.3333331 15.000001,12 C 10.333334,12 5.6666674,12 1,12 C 1,8.3333331 1,4.6666665 1,1 z"
       id="rect4151"
       style="fill:url(#linearGradient2420);fill-opacity:1;fill-rule:evenodd;stroke:none;stroke-width:1.00280869;stroke-linecap:round;stroke-linejoin:round;marker:none;marker-start:none;marker-mid:none;marker-end:none;stroke-miterlimit:4;stroke-dasharray:none;stroke-dashoffset:0;stroke-opacity:1;visibility:visible;display:inline;overflow:visible;enable-background:accumulate" />
    <path
       d="M 1,1.0139126 L 1,9 C 1.6666667,8.8091427 14.781089,4.3454169 14.999997,4.1095646 L 15.000001,1 L 1,1.0139126 z"
       id="path4073"
       style="opacity:0.3;fill:url(#linearGradient2417);fill-opacity:1;fill-rule:evenodd;stroke:none;stroke-width:1px;stroke-linecap:butt;stroke-linejoin:miter;stroke-opacity:1" />
  </g>
</svg>

<?xml version="1.0" encoding="UTF-8" standalone="no"?>
<!-- Created with Inkscape (http://www.inkscape.org/) -->

<svg
   xmlns:svg="http://www.w3.org/2000/svg"
   xmlns="http://www.w3.org/2000/svg"
   xmlns:xlink="http://www.w3.org/1999/xlink"
   version="1.0"
   width="16"
   height="16"
   id="svg3217">
  <defs
     id="defs3219">
    <linearGradient
       id="linearGradient2437">
      <stop
         id="stop2439"
         style="stop-color:#b3b3b3;stop-opacity:1"
         offset="0" />
      <stop
         id="stop2441"
         style="stop-color:#d2d2d2;stop-opacity:1"
         offset="1" />
    </linearGradient>
    <linearGradient
       x1="29.009098"
       y1="36.827461"
       x2="29.009098"
       y2="43.065559"
       id="linearGradient2428"
       xlink:href="#linearGradient2437"
       gradientUnits="userSpaceOnUse"
       gradientTransform="matrix(0.3043478,0,0,0.3333333,0.6956517,0.6666657)" />
    <linearGradient
       id="linearGradient9936">
      <stop
         id="stop9938"
         style="stop-color:#333;stop-opacity:1"
         offset="0" />
      <stop
         id="stop9940"
         style="stop-color:#575757;stop-opacity:1"
         offset="1" />
    </linearGradient>
    <linearGradient
       x1="32.733955"
       y1="16.655838"
       x2="32.733955"
       y2="32.616764"
       id="linearGradient2420"
       xlink:href="#linearGradient9936"
       gradientUnits="userSpaceOnUse"
       gradientTransform="matrix(0.3231408,0,0,0.3412459,0.2123673,0.1525853)" />
    <linearGradient
       id="linearGradient3738">
      <stop
         id="stop3742"
         style="stop-color:white;stop-opacity:1"
         offset="0" />
      <stop
         id="stop3750"
         style="stop-color:white;stop-opacity:0"
         offset="0.85612506" />
      <stop
         id="stop3744"
         style="stop-color:white;stop-opacity:0"
         offset="1" />
    </linearGradient>
    <linearGradient
       x1="17.355219"
       y1="8.000001"
       x2="24.007845"
       y2="26.039217"
       id="linearGradient2417"
       xlink:href="#linearGradient3738"
       gradientUnits="userSpaceOnUse"
       gradientTransform="matrix(0.3892281,0,0,0.4434783,-1.3445264,-2.5478262)" />
  </defs>
  <g
     id="layer1">
    <path
       d="m 4.9512838,12.502276 c 0,0 -0.4405222,1.999091 -0.4405222,2.13263 0,0.126139 -0.099124,0.865092 0.3042946,0.865092 0.3963591,0 6.1396108,0 6.4474378,0 0.308406,0 0.209767,-0.886179 0.236491,-0.956565 0.02585,-0.06808 -0.45033,-2.043435 -0.45033,-2.043435 l -6.0973712,0.0023 z"
       id="path2170"
       style="fill:url(#linearGradient2428);fill-opacity:1;fill-rule:evenodd;stroke:#999;stroke-width:0.99999976;stroke-linecap:round;stroke-linejoin:round;stroke-miterlimit:4;stroke-opacity:1;stroke-dasharray:none" />
    <path
       d="m 0.57186061,1.539902e-4 c 4.95209339,0 9.90418739,0 14.85627939,0 0.552077,-0.00476124 0.599248,0.6304031698 0.562311,1.0686449098 0,3.775343 -1e-6,7.550685 -1e-6,11.3260291 0.0045,0.584236 -0.595702,0.634155 -1.009821,0.595067 -4.802924,0 -9.6058457,0 -14.40876839,0 -0.55207637,0.0048 -0.59924854,-0.630404 -0.562311,-1.068645 0,-3.7753445 0,-7.5506874 0,-11.3260303 C 0.00225068,0.27535638 0.2695014,-0.00754388 0.57186061,1.539902e-4 z"
       id="rect3170"
       style="fill:#1a1a1a;fill-opacity:1;fill-rule:evenodd;stroke:none;stroke-width:1.00396311;marker:none;visibility:visible;display:inline;overflow:visible;enable-background:accumulate" />
    <path
       d="m 1,1 c 4.6666674,0 9.333334,0 14.000001,0 0,3.6666665 0,7.3333331 0,11 C 10.333334,12 5.6666674,12 1,12 1,8.3333331 1,4.6666665 1,1 z"
       id="rect4151"
       style="fill:url(#linearGradient2420);fill-opacity:1;fill-rule:evenodd;stroke:none;stroke-width:1.00280869;marker:none;visibility:visible;display:inline;overflow:visible;enable-background:accumulate" />
    <path
       d="M 1,1.0139126 1,9 C 1.6666667,8.8091427 14.781089,4.3454169 14.999997,4.1095646 L 15.000001,1 1,1.0139126 z"
       id="path4073"
       style="opacity:0.3;fill:url(#linearGradient2417);fill-opacity:1;fill-rule:evenodd;stroke:none" />
  </g>
</svg>
